X: 254
T: Surrender Quesnoy
%R: march, reel
Z: 2014 John Chambers <jc:trillian.mit.edu>
B: Preston "Twenty four Country Dances for the Year 1794" p.107 #2
F: http://www.vwml.org/browse/browse-collections-dance-tune-books/browse-prestons1794# 2014-8-10
N: The 2nd g in bar 9 should probably be natural.
M: 2/4
L: 1/16
K: C
c'2g2 | e2e2 dcde | c2c2 c'2g2 | e2e2 dcde | c4 :|
|: c2c2 | d2d2 cBAG | c2c2c2c2 | d2d2 cBAG | c4 :|
|: g2 (a/g/f/e/) | ^g2a2 f2 (g/f/e/d/) | ^f2g2 e2 (=f/e/d/c/) | A2f2 (ed/c/) (d/c/B) | c4 :|
% - - - - - - - - - - - - - - - - - - - - - - - - -
%%begintext align
%% The 1st Lady set to the 2d Gent.n & each turn singly
%% round in their places .| The 1st Gent.n & 2d Lady
%% do the same :| Lead down the middle up again
%% & cast off :|. Hands 4 quite round :|:
%%endtext
% - - - - - - - - - - - - - - - - - - - - - - - - -

%%sep 1 1 500
%%sep 1 1 500
